icon-themes/breeze_svg/chart2/res/lc_typecolumnline.svg

<svg viewBox="0 0 24 24" xmlns="http://www.w3.org/2000/svg"><path d="m13.736328 4-.460937.265625-4.9238285 3.046875.6542969 1.0273438 4.4999996-2.7792969 4.576172 5.1015621.923828-.7988278-4.923828-5.4824218z" fill="#1d99f3"/><path d="m5 4v14h-1v1h1v1h1v-1h15v-1h-1v-6h-3v6h-2v-10h-3v10h-2v-8h-3v8h-1v-14z" fill="#4d4d4d"/></svg>

<svg xmlns="http://www.w3.org/2000/svg" viewBox="0 0 24 24">
  <path
     style="fill:#1d99f3"
     d="M 13.736328 4 L 13.275391 4.265625 L 8.3515625 7.3125 L 9.0058594 8.3398438 L 13.505859 5.5605469 L 18.082031 10.662109 L 19.005859 9.8632812 L 14.082031 4.3808594 L 13.736328 4 z " />
  <path
     style="fill:#4d4d4d"
     d="M 5 4 L 5 18 L 4 18 L 4 19 L 5 19 L 5 20 L 6 20 L 6 19 L 21 19 L 21 18 L 20 18 L 20 12 L 17 12 L 17 18 L 15 18 L 15 8 L 12 8 L 12 18 L 10 18 L 10 10 L 7 10 L 7 18 L 6 18 L 6 4 L 5 4 z " />
</svg>
